!!!COM: Scriabin, Alexander
!!!OTL@@FR: Prélude en la majeur
!!!OTL@@EN: Prelude in A Major
!!!OPR@@FR: 24 Préludes
!!!OPR@@EN: 24 Preludes
!!!OPS: 11
!!!ONM: 7
!!!ODT: 1895
!!!AGN: Prelude
**kern	**kern	**dynam
*staff2	*staff1	*staff1/2
*Ipiano	*Ipiano	*
*clefF4	*clefG2	*
*k[f#c#g#]	*k[f#c#g#]	*
*A:	*A:	*
*M6/8	*M6/8	*
*	*^	*
8EE	16rc	8a	pp
.	16B	.	.
=1	=1	=1	=1
8AAAL 8AA	16c#LL	8g#L	.
.	16B	.	.
8E	16c#	8a	.
.	16EJJ	.	.
8EEJ	16rc	8ddJ	.
.	16e	.	.
8AAAL 8AA	16f#LL	4cc#	.
.	16e	.	.
8E	16a	.	.
.	16c#JJ	.	.
8DDJ	16rc	8dd	.
.	16e	.	.
=2	=2	=2	=2
8AAAL 8AA	16f#LL	8cc#L	.
.	16e	.	.
8F#	16f#	8dd	<
.	16BJJ	.	.
8DDJ	16rc	8gg#J	.
.	16a	.	.
8AAAL 8AA	16bLL	4ff#	.
.	16a	.	.
8B	16dd	.	.
.	16f#JJ	.	.
8EEJ	16rc	8ff#	.
.	16g#	.	.
!!LO:LB:g=original
=3	=3	=3	=3
8AAAL 8AA	16aLL	8eeL	.
.	16g#	.	.
8F#	16f#	8dd	.
.	16BJJ	.	.
8EEJ	16rc	8ddJ	.
.	16e	.	>
8AAAL 8AA	16f#LL	8cc#L	.
.	16e	.	.
8F#	16d	8b	.
.	16F#JJ	.	.
8EEJ	16F#LL	8f#J	.
.	16G#JJ	.	.
=4	=4	=4	=4
4AAA 4BB	16ALL	4d 4e	p
.	16G#	.	.
.	16F#	.	.
.	16EJJ	.	.
8EE	16F#LL	8d 8f#	.
.	16G#JJ	.	.
4AAA 4BB	16ALL	4d 4e	.
.	16G#	.	.
.	16F#	.	.
.	16EJJ	.	.
8EE	16rc	8a	.
.	16B	.	.
!!LO:LB:g=original
=5	=5	=5	=5
8AAAL 8AA	16c#LL	8g#L	.
.	16B	.	.
8E	16c#	8a	.
.	16eJJ	.	.
8FF#J	16rc	8ff#J	.
.	16g#	.	.
8FFF#L	16aLL	4ee	.
.	16g#	.	.
8E	16a	.	.
.	16c#JJ	.	.
8FF#J	16rc	8cc#	.
.	16d	.	<
=6	=6	=6	=6
8BBBL 8BB	16eLL	8bL	.
.	16d	.	.
8D	16f#	8a	.
.	16BJJ	.	.
8FF#J	16rc	8gg#J	.
.	16a	.	.
8BBBL 8BB	16bLL	4ff#	.
.	16a	.	.
8A	16dd	.	.
.	16f#JJ	.	.
8BBJ	16rc	8ff#	.
.	16g#	.	.
!!LO:LB:g=original
=7	=7	=7	=7
8EEL 8F#	16aLL	8eeL	.
.	16g#	.	.
8B	16f#	8dd	.
.	16BJJ	.	.
8BBJ	16rc	8ddJ	.
.	16e	.	>
8EEL 8F#	16f#LL	8cc#L	.
.	16e	.	.
8A	16d	8b	.
.	16F#JJ	.	.
8EEJ	16rc	8cc#J	.
.	16e	.	p
=8	=8	=8	=8
8AAAL 8AA	16f#LL	4a	.
.	16e	.	.
8E	16B	.	.
.	16c#JJ	.	.
8EEJ	16dLL	8cc#	.
.	16eJJ	.	.
8AAAL 8AA	16f#LL	4a	.
.	16e	.	.
8E	16B	.	.
.	16c#JJ	.	.
8CC#J	16rc	8a	.
.	16B	.	.
=9	=9	=9	=9
8FFF#L 8FF#	16c#LL	8g#L	.
.	16B	.	.
8E	16c#	8a	.
.	16E	.	.
8CC#J	16c#	8aJ 8cc#	<
.	16d#XJJ	.	.
8FFF#L 8FF#	16eLL	8g#L 8b	.
.	16d#	.	.
8AA 8A	16c#	8a 8cc#	.
.	16E	.	.
8FFF#J 8FF#	16c#	8aJ 8cc#	.
.	16d#JJ	.	.
!!LO:LB:g=original
=10	=10	=10	=10
8BBBBL 8BBB	16eLL	8g#L 8b	.
.	16d#X	.	.
8C# 8c#	16c#	8a 8cc#	.
.	16A	.	.
8BBBBJ 8BBB	16a	8d#J 8dd#X	.
.	16cc#JJ	.	.
8EEEL 8EE	16aLL	4e 4ee	f
.	16b	.	.
8BB 8B	16g#	.	>
.	16eJJ	.	.
8BBBJ	16rc	8gn	p
.	16A	.	.
=11	=11	=11	=11
8EEEL 8EE	16BLL	8f#L	.
.	16A	.	.
8D	16B	8gn	<
.	16D	.	.
8BBBJ	16B	8gJ 8b	.
.	16c#JJ	.	.
8EEEL 8EE	16dnLL	8f#L 8a	.
.	16c#	.	.
8GGn 8Gn	16B	8g 8b	.
.	16D	.	.
8EEEJ 8EE	16B	8gJ 8b	.
.	16c#JJ	.	.
=12	=12	=12	=12
8AAAAL 8AAA	16dLL	8f#L 8a	.
.	16c#	.	.
8BB 8B	16B	8gn 8b	.
.	16Gn	.	.
8AAAAJ 8AAA	16g	8c#J 8cc#	.
.	16bJJ	.	.
8DDDL 8DD	16gLL	4d 4dd	f
.	16a	.	.
8AA 8A	16f#	.	.
.	16dJJ	.	.
8AAAJ 8AA	16cnLL	8a 8ccn	.
.	16eJJ	.	.
!!LO:LB:g=original
=13	=13	=13	=13
4FF# 4F#	16BLL	8aL 8b	.
.	16e	.	.
.	16cn	8a 8ccn	.
.	16e	.	.
!	!	!	!LO:HP:b=2
8BBB 8BB	16c	[8aJ [8cc	<
!	!	!	!LO:HP:b=2
.	16d#XJJ	.	(
!	!	!	!LO:HP:b=2
8GGnL 8Gn	16cLL	4a] 4cc]	[ >
.	16e	.	)
8FF# 8F#	16c	.	]
.	16d#	.	.
8AAAJ 8AA	16c	8a 8cc	.
.	16eJJ	.	.
=14	=14	=14	=14
4FF# 4F#	16BLL	8aL 8b	.
.	16e	.	.
.	16cn	8a 8ccn	.
.	16e	.	.
!	!	!	!LO:HP:b=2
8BBB 8BB	16c	[8aJ [8cc	<
!	!	!	!LO:HP:b=2
.	16d#XJJ	.	(
!	!	!	!LO:HP:b=2
8GGnL 8Gn	16cLL	4a] 4cc]	[ >
.	16e	.	)
8FF# 8F#	16c	.	]
.	16d#JJ	.	.
8BBBJ 8BB	16ddnLL	8f# 8ff#	.
.	16aJJ	.	.
!!LO:LB:g=original
=15	=15	=15	=15
8FF#L 8D 8A	16ddLL	8eL 8ee	.
.	16a	.	.
8D 8A 8d	16dd	8f# 8ff#	.
.	16a	.	.
8BBBJ 8BB	16dd	8aJ 8aa	.
.	16ff#JJ	.	<
8FF#L 8D 8A	16ddLL	8g#L 8gg#	.
.	16a	.	.
8D 8A 8d	16dd	8f# 8ff#	.
.	16a	.	.
8EEEJ 8EE	16dd	8f#J 8ff#	.
.	16g#JJ	.	.
=16	=16	=16	=16
8EEL 8BB 8G#\	16ddLL	8f#L 8ff#	.
.	16g#	.	.
8D 8G# 8d	16dd	8e 8ee	.
.	16g#	.	.
8EEJ 8E	16gg#	8cc#J 8ccc#	.
.	16eeJJ	.	.
4E 4d 4g#	16gg#LL	8cc#L 8ccc#	.
.	16ee	.	.
.	16gg#	8b 8bb	.
.	16eeJJ	.	.
8EE 8E	16rc	8aJ 8aa	ff
.	16b	.	.
!!LO:LB:g=original
=17	=17	=17	=17
8AAAAL 8AAA	16cc#LL	8g#L 8gg#	ff
.	16b	.	.
8E 8e	16cc#	8a 8aa	.
.	16eJJ	.	.
8EEJ 8E	16rc	8ddJ 8ddd	.
.	16ee	.	.
8AAAAL 8AAA	16ff#LL	4cc# 4ccc#	.
.	16ee	.	.
8E 8e	16aa	.	.
.	16cc#JJ	.	.
8DDJ 8D	16rc	8dd 8ddd	.
.	16ee	.	.
=18	=18	=18	=18
8AAAAL 8AAA	16ff#LL	8cc#L 8ccc#	.
.	16ee	.	.
8F# 8d 8a	16ff#	8dd 8ddd	.
.	16bJJ	.	.
8DDJ 8D	16rc	8gg#J 8ggg#	.
.	16aa	.	.
8AAAAL 8AAA	16bbLL	4ff# 4fff#	.
.	16aa	.	.
8F# 8d 8a	16ff#	.	.
.	16bJJ	.	.
8EEJ 8E	16ff#LL	8ddd 8fff#	>
.	16gg#JJ	.	.
!!LO:LB:g=original
=19	=19	=19	=19
8AAAAL 8AAA	16aaLL	8ccc#L 8eee	mp
.	16gg#	.	.
8F# 8B 8d 8a	16ff#	8bb 8ddd	.
.	16dd	.	.
8EEJ 8E	16dd	8bbJ 8ddd	.
.	16eeJJ	.	.
8AAAAL 8AAA	16ff#LL	8aaL 8ccc#	.
.	16ee	.	.
8D 8A 8B 8f#	16dd	8ff# 8bb	.
.	16b	.	.
8EEJ	16f#	8ddJ 8ff#	>
.	16g#JJ	.	.
=20	=20	=20	=20
8AAAL 8BB	16aLL	8cc#L 8ee	.
.	16g#	.	.
8BB 8F# 8B	16f#	8b 8dd	.
.	16d	.	.
8EEJ	16d	8bJ 8dd	.
.	16eJJ	.	.
8AAAL 8BB	16f#LL	8aL 8cc#	pp
.	16e	.	.
8F#	16d	8f# 8b	.
.	16B	.	.
8EEJ	16F#	8dJ 8f#	.
.	16G#JJ	.	.
=21	=21	=21	=21
4AAA 4BB	16ALL	4d 4e	ppp
.	16G#	.	.
.	16F#	.	.
.	16E	.	.
8EE	16F#	8d 8f#	.
.	16G#JJ	.	.
4AAA 4AA	16ALL	4c# 4e	.
.	16G#	.	.
.	16F#	.	.
.	16E	.	.
8EE	16F#	8d 8f#	.
.	16G#JJ	.	.
!!LO:LB:g=original
=22	=22	=22	=22
4AAA 4BB	16ALL	4d 4e	.
.	16G#	.	.
.	16F#	.	.
.	16E	.	.
8EE	16F#	8d 8b	.
.	16G#JJ	.	.
4AAA 4AA	16ALL	4c# 4e	.
.	16G#	.	.
.	16F#	.	.
.	16E	.	.
8r	16F#	8d 8f#	.
.	16G#JJ	.	.
=23	=23	=23	=23
4AAA 4AA	16ALL	4.c# 4.e	.
.	16G#	.	.
.	16F#	.	.
.	16E	.	.
8r	16A	.	.
.	16G#JJ	.	.
4r	16F#LL	4r	.
.	16E	.	.
.	16A	.	.
.	16G#	.	.
!	!	!	!LO:DY:b=2
8EEE 8EE	16F#	8r	f
.	16EJJ	.	.
*	*v	*v	*
=24	=24	=24
4.AAAA 4.AAA	4r	.
.	8r	.
4.E 4.A 4.e	4.a 4.cc# 4.aa	.
==	==	==
*-	*-	*-
!!!system-decoration: {(*)}
!!!filter: flipper -a
!!!RDF**dynam: > = dim.
!!!ENC: Bryan Jacob Bell
!!!END: November 2021 to April 2022
!!!PED: Günter Philipp
!!!PTL: Ausgewählte Klavierwerke (Edition Peters)
!!!URL-pdf: https://github.com/bel28kent/Mysterium/blob/main/reference_editions/op11.pdf
